public/img/decorations/deco-blob-7.svg

<svg width="219" height="148" viewBox="0 0 219 148" fill="none" xmlns="http://www.w3.org/2000/svg">
<path d="M218.043 114.671C216.9 113.788 216.051 113.132 215.182 112.461C214.397 113.567 215.022 114.205 215.428 114.841C215.949 115.657 216.551 116.423 217.112 117.214C217.967 118.421 218.229 119.773 218.149 121.231C218.077 122.543 218.106 123.862 218.028 125.174C217.926 126.895 217.007 128.249 215.59 129.044C213.836 130.027 211.969 130.894 210.053 131.493C202.141 133.969 194.231 136.462 186.241 138.663C182.522 139.687 178.639 140.187 174.8 140.698C168.214 141.574 161.587 140.955 155.011 140.627C146.835 140.22 138.71 138.777 130.536 138.432C120.942 138.026 111.272 137.717 101.725 138.477C92.44 139.216 83.274 141.412 74.039 142.862C69.863 143.518 65.6249 143.781 61.4549 144.467C54.3069 145.645 47.0879 145.98 39.8979 146.675C33.5719 147.286 27.255 147.813 20.91 147.596C18.56 147.516 16.183 147.047 13.904 146.434C11.429 145.769 9.64195 144.108 8.41795 141.783C4.03895 133.465 1.74595 124.655 1.08795 115.249C0.556953 107.657 0.816948 100.09 0.720948 92.513C0.693948 90.229 0.986955 87.943 1.06896 85.656C1.13696 83.718 1.13695 81.777 1.12195 79.838C1.09695 77.03 0.976954 74.224 0.988954 71.417C1.01595 64.361 1.19395 57.306 1.11995 50.252C1.06895 45.498 0.547949 40.749 0.496949 35.995C0.445949 31.279 1.46196 26.706 3.27396 22.343C5.11596 17.905 7.58295 13.862 11.051 10.477C12.746 8.82098 14.426 7.147 16.074 5.444C19.344 2.067 23.4739 0.752996 28.0079 0.581996C30.1989 0.498996 32.404 0.763996 34.602 0.900996C37.942 1.109 41.2879 1.271 44.6199 1.582C51.1999 2.196 57.7899 2.76299 64.3429 3.60299C70.2589 4.36199 76.122 4.014 82.005 3.462C82.706 3.397 83.405 3.26401 84.109 3.23901C90.009 3.03301 95.9159 2.914 101.814 2.634C108.902 2.297 115.892 3.283 122.908 3.962C123.609 4.029 124.31 4.2 125.01 4.191C132.373 4.097 139.586 5.35199 146.813 6.52899C150.292 7.09499 153.764 7.41799 157.333 7.18099C164.981 6.67399 172.647 6.31399 180.312 6.17999C184.347 6.10999 188.406 6.526 192.431 6.94C196.296 7.336 199.833 8.87501 202.679 11.48C204.394 13.051 205.771 15.097 206.937 17.138C208.369 19.647 209.441 22.302 209.865 25.284C210.73 31.39 211.931 37.452 213.068 43.518C213.894 47.93 214.947 52.303 215.695 56.728C216.191 59.673 216.39 62.674 216.607 65.659C216.968 70.578 217.306 75.5 217.519 80.426C217.699 84.562 217.673 88.705 217.761 92.845C217.898 99.189 218.062 105.531 218.193 111.874C218.207 112.711 218.105 113.553 218.043 114.671ZM103.668 19.484C103.537 19.565 103.408 19.646 103.277 19.726C103.396 19.875 103.513 20.025 103.631 20.174C103.736 20.058 103.904 19.95 103.924 19.822C103.938 19.724 103.762 19.599 103.668 19.484Z" fill="black"/>
</svg>

<svg width="219" height="148" fill="none" xmlns="http://www.w3.org/2000/svg"><path d="M218.043 114.671l-2.861-2.21c-.785 1.106-.16 1.744.246 2.38.521.816 1.123 1.582 1.684 2.373.855 1.207 1.117 2.559 1.037 4.017-.072 1.312-.043 2.631-.121 3.943-.102 1.721-1.021 3.075-2.438 3.87-1.754.983-3.621 1.85-5.537 2.449-7.912 2.476-15.822 4.969-23.812 7.17-3.719 1.024-7.602 1.524-11.441 2.035-6.586.876-13.213.257-19.789-.071-8.176-.407-16.301-1.85-24.475-2.195-9.594-.406-19.264-.715-28.811.045-9.285.739-18.451 2.935-27.686 4.385-4.176.656-8.414.919-12.584 1.605-7.148 1.178-14.367 1.513-21.557 2.208-6.326.611-12.643 1.138-18.988.921-2.35-.08-4.727-.549-7.006-1.162-2.475-.665-4.262-2.326-5.486-4.651-4.379-8.318-6.672-17.128-7.33-26.534-.531-7.592-.271-15.159-.367-22.736-.027-2.284.266-4.57.348-6.857.068-1.938.068-3.879.053-5.818-.025-2.808-.145-5.614-.133-8.421.027-7.056.205-14.111.131-21.165-.051-4.754-.572-9.503-.623-14.257-.051-4.716.965-9.289 2.777-13.652 1.842-4.438 4.309-8.481 7.777-11.866a253.63 253.63 0 005.023-5.033c3.27-3.377 7.4-4.691 11.934-4.862 2.19-.083 4.396.182 6.594.319 3.34.208 6.686.37 10.018.681 6.58.614 13.17 1.181 19.723 2.021 5.916.759 11.779.411 17.662-.141.701-.065 1.4-.198 2.104-.223 5.9-.206 11.807-.325 17.705-.605 7.088-.337 14.078.649 21.094 1.328.701.067 1.402.238 2.102.229 7.363-.094 14.576 1.161 21.803 2.338 3.479.566 6.951.889 10.52.652 7.648-.507 15.314-.867 22.979-1.001 4.035-.07 8.094.346 12.119.76 3.865.396 7.402 1.935 10.248 4.54 1.715 1.571 3.092 3.617 4.258 5.658 1.432 2.509 2.504 5.164 2.928 8.146.865 6.106 2.066 12.168 3.203 18.234.826 4.412 1.879 8.785 2.627 13.21.496 2.945.695 5.946.912 8.931.361 4.919.699 9.841.912 14.767.18 4.136.154 8.279.242 12.419.137 6.344.301 12.686.432 19.029.014.837-.088 1.679-.15 2.797zM103.668 19.484l-.391.242.354.448c.105-.116.273-.224.293-.352.014-.098-.162-.223-.256-.338z" fill="#000"/></svg>
